assets/web/icons/video-call-solid.svg

<svg width="24" height="24" viewBox="0 0 24 24" fill="none" xmlns="http://www.w3.org/2000/svg">
<path d="M6 4H16C17.1046 4 18 4.89543 18 6V10.2857L21.3492 7.41496C21.9979 6.85896 23 7.31987 23 8.17422V15.8258C23 16.6801 21.9979 17.141 21.3492 16.585L18 13.7143V18C18 19.1046 17.1046 20 16 20H6C3.79086 20 2 18.2091 2 16V8C2 5.79086 3.79086 4 6 4Z" fill="currentColor"/>
</svg>

<svg xmlns="http://www.w3.org/2000/svg" width="24" height="24" fill="currentColor" viewBox="0 0 24 24">
  <path d="M6 4h10a2 2 0 0 1 2 2v4.286l3.35-2.871a1 1 0 0 1 1.65.76v7.65a1 1 0 0 1-1.65.76L18 13.715V18a2 2 0 0 1-2 2H6a4 4 0 0 1-4-4V8a4 4 0 0 1 4-4Z"/>
</svg>
